X:232
T:Flowing tide
M:4/4
L:1/8
K:G
D2|"G"G2 GB dGBd|GBdg bgag|"C"(3efg "G"dg Bdge|dBAG "D"edBA|"G"G2 GB dGBd|
GBdg bgag|"C"(3efg "G"dg Bdge|"D"dBAB "G"G2:||:D2|"G"GFGB "D"AGED| \
"C"gfge "G"dBAB|"Am"ceB"G"d ABGB|
"Am"(3^cBA BG AGEG|"G"DGBd B2 Bd|"Am"(3cBA BG AGEG|"G"DGBd gdBG| \
"D"DGFA "G"G2:|
